X:60
T: Graserin und Reiter
N: Q0149H
O: Mitteleuropa, Deutschland (BRD) , Hessen, Wuerges
N: Angegebenen Taktwechsel weggelassen (nicht vorhanden) .
R: Ballade, Verfuehrung, Verlassen des Elternhauses
M: 4/4
L: 1/8
K: G
d2 | G2B2B2d2 | G2B2B2
d2 | d3cc2B2 | d4A2
AB | c2e2e2c2 | B2d2d2
B2 | A2A2d2dc | B2d2d2
cc | c2e2e2c2 | B2d2d2
B2 | A2A2d2dc | B4z2

